outputs/icons/communication/sim_card_round.svg

<svg width="1200" height="1200" viewBox="0 0 1200 1200" fill="none" xmlns="http://www.w3.org/2000/svg"><g clip-path="url(#clip0_857_1923)"><path d="M800 100H300C273.478 100 248.043 110.536 229.29 129.29C210.535 148.043 200 173.478 200 200V1000C200 1026.52 210.535 1051.955 229.29 1070.71C248.043 1089.465 273.478 1100 300 1100H900C926.52 1100 951.955 1089.465 970.71 1070.71C989.465 1051.955 1000 1026.52 1000 1000V300L800 100ZM500 400H700V600H500V400ZM450 1050H300C286.739 1050 274.022 1044.73 264.644 1035.355C255.268 1025.98 250 1013.26 250 1000V850H450V1050ZM700 1050H500V850H700V1050ZM950 850V1000C950 1013.26 944.73 1025.98 935.355 1035.355C925.98 1044.73 913.26 1050 900 1050H750V850H950ZM950 800H250V450C250 436.739 255.268 424.022 264.644 414.644C274.022 405.268 286.739 400 300 400H450V650H950V800ZM950 600H750V400H900C913.26 400 925.98 405.268 935.355 414.644C944.73 424.022 950 436.739 950 450V600Z" fill="black"/></g><defs><clipPath id="clip0_857_1923"><path width="24" fill="white" d="M0 0H1200V1200H0V0z"/></clipPath></defs></svg>

<svg xmlns="http://www.w3.org/2000/svg" width="1200" height="1200" fill="none"><g clip-path="url(#a)"><path fill="#000" d="M800 100H300a100 100 0 0 0-70.71 29.29A100 100 0 0 0 200 200v800a100 100 0 0 0 100 100h600a100 100 0 0 0 100-100V300zM500 400h200v200H500zm-50 650H300a50 50 0 0 1-50-50V850h200zm250 0H500V850h200zm250-200v150c0 13.26-5.27 25.98-14.645 35.355A50 50 0 0 1 900 1050H750V850zm0-50H250V450a50 50 0 0 1 14.644-35.356A50 50 0 0 1 300 400h150v250h500zm0-200H750V400h150a50 50 0 0 1 50 50z"/></g><defs><clipPath id="a"><path fill="#fff" d="M0 0h1200v1200H0z"/></clipPath></defs></svg>
